src/assets/img/star.svg

<svg width="37" height="37" viewBox="0 0 37 37" fill="none" xmlns="http://www.w3.org/2000/svg">
<path d="M18.2611 0.965925L23.5783 13.9266L36.8784 18.3268L23.9177 23.644L19.5175 36.944L14.2003 23.9833L0.900286 19.5832L13.861 14.266L18.2611 0.965925Z" fill="url(#paint0_linear_95_3640)"/>
<defs>
<linearGradient id="paint0_linear_95_3640" x1="0.574819" y1="30.7871" x2="39.9593" y2="22.5467" gradientUnits="userSpaceOnUse">
<stop stop-color="#E6A9FF"/>
<stop offset="1" stop-color="#8556FC"/>
</linearGradient>
</defs>
</svg>

<svg xmlns="http://www.w3.org/2000/svg" width="37" height="37" fill="none"><path fill="url(#a)" d="m18.261.966 5.317 12.96 13.3 4.4-12.96 5.318-4.4 13.3-5.318-12.96-13.3-4.4 12.961-5.318 4.4-13.3Z"/><defs><linearGradient id="a" x1=".575" x2="39.959" y1="30.787" y2="22.547" gradientUnits="userSpaceOnUse"><stop stop-color="#E6A9FF"/><stop offset="1" stop-color="#8556FC"/></linearGradient></defs></svg>
